X:1
T:Mr. Fox
M:4/4
L:1/8
K:C
 D2 A4 GF| G2 C2C-D D2| D2 F2 GG Ac|A-G F2 G4| A G2 F/2G/2 A2 F2| F2 C2C-D D2|\
 D2F-G G2F-D| CC F2 D4| z DD D c4| A2 c2 A2 GF| GGC-D D4|
